package/converter/svg/light/grip-lines.svg

<svg xmlns="http://www.w3.org/2000/svg" viewBox="0 0 448 512"><!--! Font Awesome Pro 6.6.0 by @fontawesome - https://fontawesome.com License - https://fontawesome.com/license (Commercial License) Copyright 2024 Fonticons, Inc. --><path d="M448 192c0-8.8-7.2-16-16-16L16 176c-8.8 0-16 7.2-16 16s7.2 16 16 16l416 0c8.8 0 16-7.2 16-16zm0 128c0-8.8-7.2-16-16-16L16 304c-8.8 0-16 7.2-16 16s7.2 16 16 16l416 0c8.8 0 16-7.2 16-16z"/></svg>

<svg xmlns="http://www.w3.org/2000/svg" viewBox="0 0 448 512"><!-- Font Awesome Pro 6.0.0-alpha2 by @fontawesome - https://fontawesome.com License - https://fontawesome.com/license (Commercial License) --><path d="M432 176H16C7.2 176 0 183.2 0 192V192C0 200.8 7.2 208 16 208H432C440.8 208 448 200.8 448 192V192C448 183.2 440.8 176 432 176ZM432 304H16C7.2 304 0 311.2 0 320V320C0 328.8 7.2 336 16 336H432C440.8 336 448 328.8 448 320V320C448 311.2 440.8 304 432 304Z"/></svg>
